X: 11832
T: Elmer's Tune
R: polka
M: 2/4
K: Dmajor
|:D>D FA|f/f/f/f/ fe|d>F B>F|AB/A/ G2|
A/A/A/A/ ce|gg/g/ gf/f/|eB d>c|1 B2 A>F:|2 d2||
|:d/e/f/g/|ab a>f|ab a>f|Ad ce|B2 A>f|
ab a>f|ab a>d|Ag fe|1 Bc:|2 Bc d2||

